Papirus/64x64/mimetypes/application-dxf.svg

<svg xmlns="http://www.w3.org/2000/svg" width="64" height="64" version="1.1">
 <path style="opacity:0.2" d="m 14.5,7.9999995 c -1.385,0 -2.5,1.115 -2.5,2.5000005 v 45 c 0,1.384999 1.115,2.5 2.5,2.5 h 35 C 50.885,58 52,56.884999 52,55.5 V 23 L 38.25,21.75 37,7.9999995 Z"/>
 <path style="fill:#ec4646" d="m14.5 7c-1.385 0-2.5 1.115-2.5 2.5v45c0 1.385 1.115 2.5 2.5 2.5h35c1.385 0 2.5-1.115 2.5-2.5v-32.5l-13.75-1.25-1.25-13.75z"/>
 <path style="opacity:0.2;fill:#ffffff" d="M 14.5,7 C 13.115,7 12,8.115 12,9.5 v 1 C 12,9.115 13.115,8 14.5,8 H 37 c 0,-1 0,0 0,-1 z"/>
 <path style="opacity:0.2" d="M 37,7.9999995 V 20.5 c 0,1.3808 1.1193,2.5 2.5,2.5 H 52 Z"/>
 <path style="fill:#f17575" d="m37 7v12.5c0 1.3808 1.1193 2.5 2.5 2.5h12.5l-15-15z"/>
 <path style="fill:#ffffff;opacity:0" d="M 14.5,7 C 13.115,7 12,8.115 12,9.5 V 10.5 C 12,9.115 13.115,8 14.5,8 H 37 V 7 Z"/>
 <path style="opacity:0.2;stroke:#000000;stroke-width:0;stroke-linejoin:round" d="M 25,7.9999995 V 33 h -5 -4 v 4 5 h -4 v 3 h 4 v 5 4 h 4 5 v 4 h 3 v -4 h 5 4 V 50 45 H 52 V 42 H 37 V 33 H 28 V 7.9999995 Z M 19,36 h 5.833984 3.5 H 34 v 5.666015 3.5 V 51 h -5.666016 -3.5 H 19 v -5.833985 -3.5 z"/>
 <path style="fill:#ffffff;stroke:#000000;stroke-width:0;stroke-linejoin:round" d="m 25,7 v 25 h -5 -4 v 4 5 h -4 v 3 h 4 v 5 4 h 4 5 v 4 h 3 v -4 h 5 4 V 49 44 H 52 V 41 H 37 V 32 H 28 V 7 Z m -6,28 h 5.833984 3.5 H 34 v 5.666016 3.5 V 50 h -5.666016 -3.5 H 19 v -5.833984 -3.5 z"/>
 <path style="opacity:0.2;stroke:#000000;stroke-width:0;stroke-linejoin:round" d="m 25,42 v 3 h 3 v -3 z"/>
 <path style="fill:#ffffff;stroke:#000000;stroke-width:0;stroke-linejoin:round" d="m 25,41 v 3 h 3 v -3 z"/>
</svg>

<svg xmlns="http://www.w3.org/2000/svg" width="64" height="64" version="1.1">
 <path style="opacity:0.2" d="M 14.5,8 C 13.115,8 12,9.115 12,10.5 v 45 c 0,1.385 1.115,2.5 2.5,2.5 h 35 C 50.885,58 52,56.885 52,55.5 V 23 L 38.25,21.75 37,8 Z"/>
 <path style="fill:#ec4646" d="m14.5 7c-1.385 0-2.5 1.115-2.5 2.5v45c0 1.385 1.115 2.5 2.5 2.5h35c1.385 0 2.5-1.115 2.5-2.5v-32.5l-13.75-1.25-1.25-13.75z"/>
 <path style="opacity:0.2" d="m 37,8 v 12.5 c 0,1.3808 1.1193,2.5 2.5,2.5 H 52 Z"/>
 <path style="fill:#f17575" d="m37 7v12.5c0 1.3808 1.1193 2.5 2.5 2.5h12.5l-15-15z"/>
 <path style="fill:#ffffff;opacity:0" d="M 14.5,7 C 13.115,7 12,8.115 12,9.5 V 10.5 C 12,9.115 13.115,8 14.5,8 H 37 V 7 Z"/>
 <path style="opacity:0.2" d="M 25,8 V 33 H 16 V 42 H 12 V 45 H 16 V 54 H 25 V 57 H 28 V 54 H 37 V 45 H 52 V 42 H 37 V 33 H 28 V 8 Z M 19,51 V 36 H 34 V 51 M 25,42 V 45 H 28 V 42 Z"/>
 <path style="fill:#ffffff" d="M 25,7 V 32 H 16 V 41 H 12 V 44 H 16 V 53 H 25 V 57 H 28 V 53 H 37 V 44 H 52 V 41 H 37 V 32 H 28 V 7 Z M 19,50 V 35 H 34 V 50 M 25,41 V 44 H 28 V 41 Z"/>
 <path style="opacity:0.2;fill:#ffffff" d="M 14.5,7 C 13.115,7 12,8.115 12,9.5 v 1 C 12,9.115 13.115,8 14.5,8 H 37 c 0,-1 0,0 0,-1 z"/>
</svg>
